X: 22169
T: L'Inconnu De Limoise
R: mazurka
M: 3/4
K: Bminor
B2- B>G c>A|B2- B>G c>d|c2- c>B A>G|A2- A>D G>A|
B2 B>G c>A|B2 B>G c>d|c2 c>B A>B|G3:|
e2 g>f e>f|d2- d>c B>A|G2 G>A B>G|D2- D>G G>F|
E2- E>F G>A|G2 F2 E2|F2 F>G A>B|G3:|
G2 G>E A>F|G2 G>E A>B|A2 A>G F>E|F2- F>B, E>F|
G2 G>E A>F|G2 G>E A>B|A2 A>G F>G|E3:|
c2 e>d c>d|B2 B>A G>F|E2 E>F G>E|B,2- B,>E E>D|
C2 C>D E>F|E2 D2 C2|D2 D>E F>G|E3:|
d2- d>B e>c|d2- d>B e>f|e2- e>d c>B|c2- c>F B>c|
d2 d>B e>c|d2 d>B e>f|e2 e>d c>A|B3:|
g2 b>a g>a|f2 f>e d>c|B2 B>c (3dcB|F2 B2 A2|
G2- G>A B>c|B2 A2 G2|A2 A>B c>d|B3:|

